X:35
T:[untitled]
N:[Murdoch Henderson's writing:] Anon
T:pretty
Z:Jack Campin - http://www.campin.me.uk
S:Blaikie MS (NLS MS.1578) p13, Blaikie #34
M:C
L:1/8
V:1 midi program 1 74
V:2 midi program 1 46 bass middle = d transpose -24
Q:1/4=100
K:F
[V:1]  F/G/|AA`GF        F>GAz/C/|D>C`DF    F2
[V:2]  z   |Ff`ef        ag`fa   |ba``ba    f2
%
[V:1] zF/G/|AA GG/F/     F>GAz/C/|D>C`DF    F3||
[V:2] z2   |Ff`ef        ag`fa   |ba``ba    f3||
%
[V:1]  C   |FF`Ac        d>efd   |c>A F/G/A B2
[V:2]  z   |F2`f2        B2 B2   |f2  f2    B2
%
[V:1] zd   |c>d c/B/A/G/ F>GAz/C/|D>C`DF    F3|]
[V:2] B2   |F2  f2       ag`fa   |ba``ba    f3|]
W:Transcription (c) Jack Campin 2009, no mirroring or republication without permission

